!!!COM: Hensel, Fanny
!!!CDT: 1805/11/14-1847/05/14
!!!LYR: Geibel, Emanuel
!!!OTL: Morgenwanderung
!!!OMD: Allegro moderato
**kern	**text	**text	**dynam	**kern	**text	**text	**dynam	**kern	**text	**text	**dynam	**kern	**text	**text	**dynam
*part4	*part4	*part4	*part4	*part3	*part3	*part3	*part3	*part2	*part2	*part2	*part2	*part1	*part1	*part1	*part1
*staff4	*staff4	*staff4	*	*staff3	*staff3	*staff3	*	*staff2	*staff2	*staff2	*	*staff1	*staff1	*staff1	*
*I"Baß	*	*	*	*I"Tenor	*	*	*	*I"Alt	*	*	*	*I"Sopran	*	*	*
*>[A,A1,A,A2,B]	*	*	*	*>[A,A1,A,A2,B]	*	*	*	*>[A,A1,A,A2,B]	*	*	*	*>[A,A1,A,A2,B]	*	*	*
*>A	*	*	*	*>A	*	*	*	*>A	*	*	*	*>A	*	*	*
*clefF4	*	*	*	*clefGv2	*	*	*	*clefG2	*	*	*	*clefG2	*	*	*
*k[f#]	*	*	*	*k[f#]	*	*	*	*k[f#]	*	*	*	*k[f#]	*	*	*
*G:	*	*	*	*G:	*	*	*	*G:	*	*	*	*G:	*	*	*
*M4/4	*	*	*	*M4/4	*	*	*	*M4/4	*	*	*	*M4/4	*	*	*
=	=	=	=	=	=	=	=	=	=	=	=	=	=	=	=
!	!	!	!	!	!	!	!	!	!	!	!	!	!	!	!
4D	Wer	.	f	4d	Wer	.	f	4d	Wer	.	f	4d	Wer	.	f
=!|:1	=!|:1	=!|:1	=!|:1	=!|:1	=!|:1	=!|:1	=!|:1	=!|:1	=!|:1	=!|:1	=!|:1	=!|:1	=!|:1	=!|:1	=!|:1
4G	recht	gan-	.	4B	recht	gan-	.	4d	recht	gan-	.	4g	recht	gan-	.
4G	in	-ze	.	4d	in	-ze	.	4g	in	-ze	.	4b	in	-ze	.
4G	Freu-	Welt	.	4fn	Freu-	Welt	.	4g	Freu-	Welt	.	4dd	Freu-	Welt	.
4G	-den	ist	.	4e	-den	ist	.	4g	-den	ist	.	4cc	-den	ist	.
=2	=2	=2	=2	=2	=2	=2	=2	=2	=2	=2	=2	=2	=2	=2	=2
4.C	wan-	wie	.	4.d	wan-	wie	.	4.g	wan-	wie	.	4.ffn	wan-	wie	.
8C	-dern	ein	.	8B	-dern	ein	.	8g	-dern	ein	.	8dd#X	-dern	ein	.
4C	will,	Buch,	.	4c	will,	Buch,	.	4g	will,	Buch,	.	4ee	will,	Buch,	.
4BB	der	dar-	.	4d	der	dar-	.	4g	der	dar-	.	4ddn	der	dar-	.
=3	=3	=3	=3	=3	=3	=3	=3	=3	=3	=3	=3	=3	=3	=3	=3
4C	geh’	-in	.	4A	geh’	-in	.	4e	geh’	-in	.	4cc	geh’	-in	.
4C	der	uns	.	4G	der	uns	.	4e	der	uns	.	4b	der	uns	.
4C	Sonn’	auf-	.	4F#	Sonn’	auf-	.	4e	Sonn’	auf-	.	4a	Sonn’	auf-	.
4C#X	ent-	-ge-	.	4G	ent-	-ge-	.	4e	ent-	-ge-	.	4b	ent-	-ge-	.
=4	=4	=4	=4	=4	=4	=4	=4	=4	=4	=4	=4	=4	=4	=4	=4
2D	-ge-	-schrie-	.	2G	-ge-	-schrie-	.	2d	-ge-	-schrie-	.	2b	-ge-	-schrie-	.
4D	-gen,	-ben	.	4F#	-gen,	-ben	.	4d	-gen,	-ben	.	4a	-gen,	-ben	.
4C	da	in	.	4F#	da	in	.	4d	da	in	.	4a	da	in	.
=5	=5	=5	=5	=5	=5	=5	=5	=5	=5	=5	=5	=5	=5	=5	=5
*e:	*	*	*	*e:	*	*	*	*e:	*	*	*	*e:	*	*	*
4.BB	ist	bun-	.	4.F#	ist	bun-	.	4.d#X	ist	bun-	.	4.b	ist	bun-	.
8BB	der	-ten	.	8F#	der	-ten	.	8d#	der	-ten	.	8b	der	-ten	.
4BB	Wald	Zei-	.	4G	Wald	Zei-	.	4.e	Wald	Zei-	.	4.b	Wald	Zei-	.
4BB	.	.	.	4E	.	.	.	.	.	.	.	.	.	.	.
.	.	.	.	.	.	.	.	8g	so	-len	.	8cc#X	so	-len	.
=6	=6	=6	=6	=6	=6	=6	=6	=6	=6	=6	=6	=6	=6	=6	=6
4.BB	kir-	-manch’	.	4.A#X	kir-	-manch’	.	4.g	kir-	manch’	.	4.ee	kir-	manch’	.
8BB	-chen-	ein	.	8B	-chen-	ein	.	8f#	-chen-	ein	.	8dd#X	-chen-	ein	.
4BB	-still,	Spruch,	.	4B	-still,	Spruch,	.	4f#	-still,	Spruch,	.	4dd#	-still,	Spruch,	.
4D#X	kein	wie	.	4B	kein	wie	.	4a	kein	wie	.	4ff#	kein	wie	.
=7	=7	=7	=7	=7	=7	=7	=7	=7	=7	=7	=7	=7	=7	=7	=7
4E	Lüft-	Gott	.	4B	Lüft-	Gott	.	4g	Lüft-	Gott	.	4ee	Lüft-	Gott	.
4G	-chen	uns	.	4B	-chen	uns	.	4e	-chen	uns	.	4b	-chen	uns	.
*D:	*	*	*	*D:	*	*	*	*D:	*	*	*	*D:	*	*	*
4E	mag	true	.	4e	mag	true	.	4g	mag	true	.	4cc	mag	true	.
4AA	sich	ge-	.	4e	sich	ge-	.	4g	sich	ge-	.	4cc#X	sich	ge-	.
=8	=8	=8	=8	=8	=8	=8	=8	=8	=8	=8	=8	=8	=8	=8	=8
2D	re-	-blie-	.	4B	re-	-blie-	.	2g	re-	-blie-	.	2dd	re-	-blie-	.
.	.	.	.	4c#X	.	.	.	.	.	.	.	.	.	.	.
4D	-gen.	-ben.	.	4d	-gen.	-ben.	.	4f#	-gen.	-ben.	.	4a	-gen.	-ben.	.
4r	.	.	.	4r	.	.	.	4r	.	.	.	4r	.	.	.
=9	=9	=9	=9	=9	=9	=9	=9	=9	=9	=9	=9	=9	=9	=9	=9
1r	.	.	.	1r	.	.	.	4d	Noch	Wal-	.	4f#	Noch	Wal-	.
.	.	.	.	.	.	.	.	4d	sind	-des-	<	4f#	sind	-des-	<
.	.	.	.	.	.	.	.	4d	nicht	-blu-	.	4f#	nicht	-blu-	.
.	.	.	.	.	.	.	.	4d	die	-men	[	4f#	die	-men	[
=10	=10	=10	=10	=10	=10	=10	=10	=10	=10	=10	=10	=10	=10	=10	=10
*G:	*	*	*	*G:	*	*	*	*G:	*	*	*	*G:	*	*	*
4D	Noch	Wal-	.	4F#	Noch	Wal-	.	4.a	Ler-	nah	.	4.cc	Ler-	nah	.
!	!	!	!	!	!	!	!LO:DY:a	!	!	!	!	!	!	!	!
4D	sind	-des-	<	4F#	sind	-des-	<	.	.	.	.	.	.	.	.
.	.	.	.	.	.	.	.	8g	-chen	und	.	8b	-chen	und	.
4D	nicht	-blu-	.	4F#	nicht	-blu-	.	4f#	wach,	fern	.	4a	wach,	fern	.
4D	die	-men	[	4F#	die	-men	[	4r	.	.	.	4r	.	.	.
=11	=11	=11	=11	=11	=11	=11	=11	=11	=11	=11	=11	=11	=11	=11	=11
4.A	Ler-	nah	.	4.c	Ler-	nah	.	4f#	nur	und	.	4a	nur	und	.
.	.	.	.	.	.	.	.	4f#	im	der	<	4a	im	der	<
8G	-chen	und	.	8B	-chen	und	.	.	.	.	.	.	.	.	.
4F#	wach,	fern	.	4A	wach,	fern	.	4f#	ho-	hel-	.	4a	ho-	hel-	.
4r	.	.	.	4r	.	.	.	4f#	-hen	-le	[	4a	-hen	-le	[
=12	=12	=12	=12	=12	=12	=12	=12	=12	=12	=12	=12	=12	=12	=12	=12
4F#	nur	und	.	4A	nur	und	.	4.cc	Gras	Mor-	.	4.ee	Gras	Mor-	.
4F#	im	der	<	4A	im	der	<	.	.	.	.	.	.	.	.
.	.	.	.	.	.	.	.	8b	der	-gen-	.	8dd	der	-gen-	.
4F#	ho-	hel-	.	4A	ho-	hel-	.	4a	Bach	-stern	.	4cc	Bach	-stern	.
4G	-hen	-le	[	4B	-hen	-le	[	4g	singt	sind	.	4b	singt	sind	.
=13	=13	=13	=13	=13	=13	=13	=13	=13	=13	=13	=13	=13	=13	=13	=13
4.c	Gras	Mor-	.	4.e	Gras	Mor-	.	2g	lei-	Zeu-	.	2a	lei-	Zeu-	.
8c	der	-gen-	.	8e	der	-gen-	.	.	.	.	.	.	.	.	.
4B	Bach	-stern	.	4d	Bach	-stern	.	4g	-se,	-gen,	.	4b	-se,	-gen,	.
4A	singt	sind	.	4c	singt	sind	.	4g	singt	sind	.	4cc	singt	sind	.
=14	=14	=14	=14	=14	=14	=14	=14	=14	=14	=14	=14	=14	=14	=14	=14
2G	lei-	Zeu-	.	2B	lei-	Zeu-	.	2.g	lei-	Zeu-	.	4dd	lei-	Zeu-	.
.	.	.	.	.	.	.	.	.	.	.	.	4gg	.	.	.
4G	-se	-gen	.	4B	-se	-gen	.	.	.	.	.	4dd	-se	-gen	.
4G	den	von	.	4d	den	von	.	4fn	-den	-von	.	4b	den	von	.
=15	=15	=15	=15	=15	=15	=15	=15	=15	=15	=15	=15	=15	=15	=15	=15
4C	Mor-	sei-	.	4c	Mor-	sei-	.	2e	Mor-	sei-	.	4a	Mor-	sei-	.
4C#X	-gen-	-nem	.	4A	-gen-	-nem	.	.	.	.	.	4g	-gen-	-nem	.
2D	-se-	Lie-	.	2A	-se-	Lie-	.	2d	-se-	-Lie-	.	4.f#	-se-	Lie-	.
.	.	.	.	.	.	.	.	.	.	.	.	8cc	.	.	.
=16	=16	=16	=16	=16	=16	=16	=16	=16	=16	=16	=16	=16	=16	=16	=16
*>A1	*	*	*	*>A1	*	*	*	*>A1	*	*	*	*>A1	*	*	*
2GG	-gen.	.	.	2G	-gen.	.	.	2d	-gen.	.	.	2b	-gen.	.	.
4r	.	.	.	4r	.	.	.	4r	.	.	.	4r	.	.	.
4D	Die	.	.	4D	Die	.	.	4d	Die	.	.	4d	Die	.	.
=:|!16	=:|!16	=:|!16	=:|!16	=:|!16	=:|!16	=:|!16	=:|!16	=:|!16	=:|!16	=:|!16	=:|!16	=:|!16	=:|!16	=:|!16	=:|!16
*>A2	*	*	*	*>A2	*	*	*	*>A2	*	*	*	*>A2	*	*	*
2GG	.	-ben.	.	2G	.	-ben.	.	2d	.	-ben.	.	2b	.	-ben.	.
!LO:TX:a:t=solo	!	!	!	!LO:TX:a:t=solo	!	!	!	!LO:TX:a:t=solo	!	!	!	!LO:TX:a:t=solo	!	!	!
4r	.	.	.	4r	.	.	.	4r	.	.	.	4r	.	.	.
4G	Da	.	p	4B	Da	.	p	4d	Da	.	p	4b	Da	.	p
=17	=17	=17	=17	=17	=17	=17	=17	=17	=17	=17	=17	=17	=17	=17	=17
*>B	*	*	*	*>B	*	*	*	*>B	*	*	*	*>B	*	*	*
4.F#	zieht	.	.	4.A	zieht	.	.	4.d#X	zieht	.	.	4.b	zieht	.	.
8F#	die	.	.	8A	die	.	.	8d#	die	.	.	8b	die	.	.
4E	An-	.	.	4G	An-	.	.	4e	An-	.	.	4b	An-	.	.
4E	-dacht	.	.	4B	-dacht	.	.	4g	-dacht	.	.	4ee	-dacht	.	.
=18	=18	=18	=18	=18	=18	=18	=18	=18	=18	=18	=18	=18	=18	=18	=18
*e:	*	*	*	*e:	*	*	*	*e:	*	*	*	*e:	*	*	*
4.BB	wie	.	.	4.A#X	wie	.	.	4.g	wie	.	.	4.ee	wie	.	.
8BB	ein	.	.	8B	ein	.	.	8f#	ein	.	.	8dd#X	ein	.	.
4BB	Hauch	.	.	4B	Hauch	.	.	4f#	Hauch	.	.	4dd#	Hauch	.	.
4A	durch	.	.	4B	durch	.	.	4d#X	durch	.	.	4b	durch	.	.
=19	=19	=19	=19	=19	=19	=19	=19	=19	=19	=19	=19	=19	=19	=19	=19
4G	al-	.	.	4B	al-	.	.	4e	al-	.	.	4cc#X	al-	.	.
4F#	-le	.	.	4B	-le	.	.	4f#	-le	.	.	4dd#X	-le	.	.
4E	Sin-	.	.	4B	Sin-	.	.	4g	Sin-	.	.	4ee	Sin-	.	.
4D#X	-nen	.	.	4f#	-nen	.	.	4a	-nen	.	.	4ff#	-nen	.	.
=20	=20	=20	=20	=20	=20	=20	=20	=20	=20	=20	=20	=20	=20	=20	=20
2D#X	lei-	.	.	2B	lei-	.	.	2a	lei-	.	.	2ff#	lei-	.	.
4E	-se,	.	.	4B	-se,	.	.	4g	-se,	.	.	4ee	-se,	.	.
4r	.	.	.	4f#	da	.	.	4a	da	.	.	4dd	da	.	.
=21	=21	=21	=21	=21	=21	=21	=21	=21	=21	=21	=21	=21	=21	=21	=21
1r	.	.	.	4.e	pocht	.	.	4.g	pocht	.	.	4.cc	pocht	.	.
.	.	.	.	8e	ans	.	.	8g	ans	.	.	8dd	ans	.	.
.	.	.	.	4d	Herz	.	.	4f#	Herz	.	.	4cc	Herz	.	.
.	.	.	.	4d	die	.	.	4f#	die	.	.	4b	die	.	.
=22	=22	=22	=22	=22	=22	=22	=22	=22	=22	=22	=22	=22	=22	=22	=22
2r	.	.	.	4.c	Lie-	.	.	4.e	Lie-	.	.	4.ee	Lie-	.	.
.	.	.	.	8c	-be	.	.	8e	-be	.	.	8a	-be	.	.
4r	.	.	.	4B	auch	.	.	4d	auch	.	.	4a	auch	.	.
4B	nach	.	.	4B	nach	.	.	4d	nach	.	.	4g	nach	.	.
=23	=23	=23	=23	=23	=23	=23	=23	=23	=23	=23	=23	=23	=23	=23	=23
4A	ih-	.	.	4A	ih-	.	.	4c	ih-	.	.	4f#	ih-	.	.
4G	-rer	.	.	4G	-rer	.	.	4B	-rer	.	.	4e	-rer	.	.
*e:	*	*	*	*e:	*	*	*	*e:	*	*	*	*e:	*	*	*
4F#	stil-	.	.	4B	stil-	.	.	4d#X	stil-	.	.	4b	stil-	.	.
4E	-len	.	.	4B	-len	.	.	4e	-len	.	.	4g	-len	.	.
=24	=24	=24	=24	=24	=24	=24	=24	=24	=24	=24	=24	=24	=24	=24	=24
2BB	Wei-	.	.	2A#X	Wei-	.	.	2e	Wei-	.	.	2g	Wei-	.	.
4BB	-se,	.	.	4B	-se,	.	.	4d#X	-se,	.	.	4f#	-se,	.	.
4r	.	.	.	4r	.	.	.	4r	.	.	.	4r	.	.	.
=25	=25	=25	=25	=25	=25	=25	=25	=25	=25	=25	=25	=25	=25	=25	=25
4G	pocht	.	p	4B	pocht	.	p	4dn	pocht	.	p	4g	pocht	.	p
4G	und	.	.	4B	und	.	.	4d	und	.	.	4g	und	.	.
*a:	*	*	*	*a:	*	*	*	*a:	*	*	*	*a:	*	*	*
4Fn	pocht,	.	.	4B	pocht,	.	.	4d	pocht,	.	.	4g#X	pocht,	.	.
4E	bis	.	.	4B	bis	.	.	4d	bis	.	.	4g#	bis	.	.
=26	=26	=26	=26	=26	=26	=26	=26	=26	=26	=26	=26	=26	=26	=26	=26
4.AA	sich’s	.	.	4.G#X	sich’s	.	.	4.d	sich’s	.	.	4.b	sich’s	.	.
8AA	er-	.	.	8A	er-	.	.	8c	er-	.	.	8a	er-	.	.
4AA	-schließt	.	.	4A	-schließt	.	.	4c	-schließt	.	.	4a	-schließt	.	.
4r	.	.	.	4r	.	.	.	4r	.	.	.	4r	.	.	.
=27	=27	=27	=27	=27	=27	=27	=27	=27	=27	=27	=27	=27	=27	=27	=27
4A	und	.	.	4e	und	.	.	4a	und	.	.	4cc	und	.	.
4A	die	.	.	4e	die	.	.	4a	die	.	.	4cc	die	.	.
!LO:TX:b:i:t=cresc.	!	!	!	!LO:TX:b:i:t=cresc.	!	!	!	!LO:TX:b:i:t=cresc.	!	!	!	!LO:TX:b:i:t=cresc.	!	!	!
*d:	*	*	*	*d:	*	*	*	*d:	*	*	*	*d:	*	*	*
4B-X	Li-	.	.	4e	Li-	.	.	4g	Li-	.	.	4cc#X	Li-	.	.
4A	-pe	.	.	4e	-pe	.	.	4g	-pe	.	.	4cc#	-pe	.	.
=28	=28	=28	=28	=28	=28	=28	=28	=28	=28	=28	=28	=28	=28	=28	=28
4.D	ü-	.	.	4.c#X	ü-	.	.	4.g	ü-	.	.	4.ee	ü-	.	.
8D	-ber-	.	.	8d	-ber-	.	.	8fn	-ber-	.	.	8dd	-ber-	.	.
4D	-fließt,	.	.	4d	-fließt,	.	.	4f	-fließt,	.	.	4dd	-fließt,	.	.
*G:	*	*	*	*G:	*	*	*	*G:	*	*	*	*G:	*	*	*
4D	in	.	f	4cn	in	.	f	4f	in	.	f	4dd	in	.	f
=29	=29	=29	=29	=29	=29	=29	=29	=29	=29	=29	=29	=29	=29	=29	=29
2.G	lau-	.	.	2.B	lau-	.	.	2.fn	lau-	.	.	4.ffn	lau-	.	.
.	.	.	.	.	.	.	.	.	.	.	.	8dd	-tem	.	.
.	.	.	.	.	.	.	.	.	.	.	.	8ccL	ju-	.	.
.	.	.	.	.	.	.	.	.	.	.	.	8bJ	.	.	.
4G	-tem	.	.	4B	-tem	.	.	4f	-tem	.	.	8a	-beln-	.	.
.	.	.	.	.	.	.	.	.	.	.	.	8g	-dem	.	.
=30	=30	=30	=30	=30	=30	=30	=30	=30	=30	=30	=30	=30	=30	=30	=30
4G	ju-	.	.	4B	ju-	.	.	2fn	Preis’	.	.	2g	Prei-	.	.
8BL	-beln-	.	.	8dL	-beln-	.	.	.	.	.	.	.	.	.	.
8AJ	-dem	.	.	8cJ	-dem	.	.	.	.	.	.	.	.	.	.
4G	Prei-	.	.	4B	Prei-	.	.	4r	.	.	.	4g	-se,	.	.
8BBL	-se,	.	.	8AL	-se,	.	.	4f	in	.	.	4g	in	.	.
8BBJ	in	.	.	8GJ	in	.	.	.	.	.	.	.	.	.	.
=31	=31	=31	=31	=31	=31	=31	=31	=31	=31	=31	=31	=31	=31	=31	=31
4C	lau-	.	.	4G	lau-	.	.	4e	lau-	.	.	4gg	lau-	.	.
4C	-tem	.	.	4G#X	-tem	.	.	4e	-tem	.	.	4ee	-tem	.	.
4C	ju-	.	.	4A	ju-	.	.	4e	ju-	.	.	4cc	ju-	.	.
8GG#XL	-beln-	.	.	8dL	-beln-	.	.	8eL	-beln-	.	.	8b	-beln-	.	.
8AAJ	-dem	.	.	8cJ	-dem	.	.	8eJ	-dem	.	.	8a	-dem	.	.
=32	=32	=32	=32	=32	=32	=32	=32	=32	=32	=32	=32	=32	=32	=32	=32
2D	Prei-	.	.	2B	Prei-	.	.	2d	Prei-	.	.	2g	Prei-	.	.
4D;	-se.	.	.	4A;	-se.	.	.	4d;	-se.	.	.	4f#;	-se.	.	.
4C	Und	.	f	4F#	Und	.	f	4d	Und	.	f	4d	Und	.	f
=33	=33	=33	=33	=33	=33	=33	=33	=33	=33	=33	=33	=33	=33	=33	=33
4BB	plötz-	.	.	4G	plötz-	.	.	4d	plötz-	.	.	4g	plötz-	.	.
4GG	-lich	.	.	4d	-lich	.	.	4g	-lich	.	.	4b	-lich	.	.
4G	läßt	.	.	4fn	läßt	.	.	4g	läßt	.	.	4dd	läßt	.	.
4G	die	.	.	4e	die	.	.	4g	die	.	.	4cc	die	.	.
=34	=34	=34	=34	=34	=34	=34	=34	=34	=34	=34	=34	=34	=34	=34	=34
4.C	Nach-	.	.	4.d	Nach-	.	.	4.g	Nach-	.	.	4.ffn	Nach-	.	.
8C	-ti-	.	.	8B	-ti-	.	.	8g	-ti-	.	.	8dd#X	-ti-	.	.
4C	-gall	.	.	4c	-gall	.	.	4g	-gall	.	.	4ee	-gall	.	.
4BB	im	.	.	4d	im	.	.	4g	im	.	.	4ddn	im	.	.
=35	=35	=35	=35	=35	=35	=35	=35	=35	=35	=35	=35	=35	=35	=35	=35
4C	Busch	.	.	4A	Busch	.	.	4e	Busch	.	.	4cc	Busch	.	.
4C	ihr	.	.	4G	ihr	.	.	4e	ihr	.	.	4b	ihr	.	.
4C	Lied	.	.	4F#	Lied	.	.	4e	Lied	.	.	4a	Lied	.	.
4C#X	er-	.	.	4G	er-	.	.	4e	er-	.	.	4b	er-	.	.
=36	=36	=36	=36	=36	=36	=36	=36	=36	=36	=36	=36	=36	=36	=36	=36
2D	-klin-	.	.	2G	-klin-	.	.	2d	-klin-	.	.	2b	-klin-	.	.
4D	-gen,	.	.	4F#	-gen,	.	.	4d	-gen,	.	.	4a	-gen,	.	.
4Cn	durch	.	.	4F#	durch	.	.	4d	durch	.	.	4a	durch	.	.
=37	=37	=37	=37	=37	=37	=37	=37	=37	=37	=37	=37	=37	=37	=37	=37
*e:	*	*	*	*e:	*	*	*	*e:	*	*	*	*e:	*	*	*
4.BB	Berg	.	.	4.F#	Berg	.	.	4.d#X	Berg	.	.	4.b	Berg	.	.
8BB	und	.	.	8F#	und	.	.	8d#	und	.	.	8b	und	.	.
4BB	Tal	.	.	4G	Tal	.	.	4e	Tal	.	.	4b	Tal	.	.
4BB	er-	.	.	4E	er-	.	.	4g	er-	.	.	4cc#X	er-	.	.
=38	=38	=38	=38	=38	=38	=38	=38	=38	=38	=38	=38	=38	=38	=38	=38
4.BB	-wacht	.	.	4.A#X	-wacht	.	.	4.g	-wacht	.	.	4.ee	-wacht	.	.
8BB	der	.	.	8B	der	.	.	8f#	der	.	.	8dd#X	der	.	.
4BB	Schall	.	.	4B	Schall	.	.	4f#	Schall	.	.	4dd#	Schall	.	.
4D#X	und	.	.	4B	und	.	.	4a	und	.	.	4ff#	und	.	.
=39	=39	=39	=39	=39	=39	=39	=39	=39	=39	=39	=39	=39	=39	=39	=39
4E	will	.	.	4B	will	.	.	4g	will	.	.	4ee	will	.	.
4G	sich	.	.	4B	sich	.	.	4e	sich	.	.	4b	sich	.	.
*G:	*	*	*	*G:	*	*	*	*G:	*	*	*	*G:	*	*	*
4E	auf-	.	.	4e	auf-	.	.	4g	auf-	.	.	4cc	auf-	.	.
4AA	-wärts	.	.	4e	-wärts	.	.	4g	-wärts	.	.	4cc#X	-wärts	.	.
=40	=40	=40	=40	=40	=40	=40	=40	=40	=40	=40	=40	=40	=40	=40	=40
2D	schwin-	.	.	(4B	schwin-	.	.	2g	schwin-	.	.	2dd	schwin-	.	.
.	.	.	.	4c#X)	.	.	.	.	.	.	.	.	.	.	.
4D	-gen.	.	.	4d	-gen.	.	.	4f#	-gen.	.	.	4a	-gen.	.	.
4r	.	.	.	4r	.	.	.	4r	.	.	.	4r	.	.	.
=41	=41	=41	=41	=41	=41	=41	=41	=41	=41	=41	=41	=41	=41	=41	=41
1r	.	.	.	1r	.	.	.	4d	Und	.	.	4f#	Und	.	.
.	.	.	.	.	.	.	.	4d	der	.	.	4f#	der	.	.
.	.	.	.	.	.	.	.	4d	Mor-	.	.	4f#	Mor-	.	.
.	.	.	.	.	.	.	.	4d	-gen-	.	.	4f#	-gen-	.	.
=42	=42	=42	=42	=42	=42	=42	=42	=42	=42	=42	=42	=42	=42	=42	=42
4D	Und	.	.	4F#	Und	.	.	4.a	-rö-	.	.	4.cc	-rö-	.	.
4D	der	.	.	4F#	der	.	.	.	.	.	.	.	.	.	.
.	.	.	.	.	.	.	.	8g	-te	.	.	8b	-te	.	.
4D	Mor-	.	.	4F#	Mor-	.	.	4f#	Schein	.	.	4a	Schein	.	.
4D	-gen-	.	.	4F#	-gen-	.	.	4r	.	.	.	4r	.	.	.
=43	=43	=43	=43	=43	=43	=43	=43	=43	=43	=43	=43	=43	=43	=43	=43
4.A	-rö-	.	.	4.c	-rö-	.	.	4f#	stimmt	.	.	4a	stimmt	.	.
.	.	.	.	.	.	.	.	4f#	mit	.	.	4a	mit	.	.
8G	-te	.	.	8B	-te	.	.	.	.	.	.	.	.	.	.
4F#	Schein	.	.	4A	Schein	.	.	4f#	lich-	.	.	4a	lich-	.	.
4r	.	.	.	4r	.	.	.	4f#	-ter	.	.	4a	-ter	.	.
=44	=44	=44	=44	=44	=44	=44	=44	=44	=44	=44	=44	=44	=44	=44	=44
4F#	stimmt	.	.	4A	stimmt	.	.	4.cc	Glut	.	.	4.ee	Glut	.	.
4F#	mit	.	.	4A	mit	.	.	.	.	.	.	.	.	.	.
.	.	.	.	.	.	.	.	8b	mit	.	.	8dd	mit	.	.
4F#	lich-	.	.	4A	lich-	.	.	4a	ein:	.	.	4cc	ein:	.	.
4G	-ter	.	.	4B	-ter	.	.	4g	Laßt	.	.	4b	Laßt	.	.
=45	=45	=45	=45	=45	=45	=45	=45	=45	=45	=45	=45	=45	=45	=45	=45
(4.c	Glut	.	.	(4.e	Glut	.	.	2.g	uns	.	.	(2a	uns	.	.
8c	mit	.	.	8e	mit	.	.	.	.	.	.	.	.	.	.
4B)	ein:	.	.	4d)	ein:	.	.	.	.	.	.	4b)	.	.	.
4A	Laßt	.	.	4c	Laßt	.	.	4g	dem	.	.	4cc	dem	.	.
=46	=46	=46	=46	=46	=46	=46	=46	=46	=46	=46	=46	=46	=46	=46	=46
2.G	uns	.	.	2.B	uns	.	.	2.g	Herrn,	.	.	(4dd	Herrn,	.	.
.	.	.	.	.	.	.	.	.	.	.	.	4gg	.	.	.
.	.	.	.	.	.	.	.	.	.	.	.	4dd)	.	.	.
4G	dem	.	.	4d	dem	.	.	4fn	dem	.	.	4b	dem	.	.
=47	=47	=47	=47	=47	=47	=47	=47	=47	=47	=47	=47	=47	=47	=47	=47
4C	Herrn	.	.	4c	Herrn	.	.	4e	Herrn	.	.	4a	Herrn	.	.
4C#X	lob-	.	.	4A	lob-	.	.	4e	lob-	.	.	4g	lob-	.	.
2D	-sin-	.	.	2A	-sin-	.	.	2d	-sin-	.	.	(4.f#	-sin-	.	.
.	.	.	.	.	.	.	.	.	.	.	.	8cc)	.	.	.
=48	=48	=48	=48	=48	=48	=48	=48	=48	=48	=48	=48	=48	=48	=48	=48
2GG	-gen,	.	.	2G	-gen,	.	.	2d	-gen,	.	.	2b	-gen,	.	.
4r	.	.	.	4r	.	.	.	4r	.	.	.	4r	.	.	.
4G	laßt	.	.	4B	laßt	.	.	4fn	laßt	.	.	4dd	laßt	.	.
=49	=49	=49	=49	=49	=49	=49	=49	=49	=49	=49	=49	=49	=49	=49	=49
2.G	uns	.	.	2.c	uns	.	.	2.e	uns	.	.	(2dd	uns	.	.
.	.	.	.	.	.	.	.	.	.	.	.	4g)	.	.	.
4G	dem	.	.	4c#X	dem	.	.	4g	dem	.	.	4ee	dem	.	.
=50	=50	=50	=50	=50	=50	=50	=50	=50	=50	=50	=50	=50	=50	=50	=50
2.G	Herrn,	.	.	2.d	Herrn,	.	.	2.f#	Herrn,	.	.	(2ee	Herrn,	.	.
.	.	.	.	.	.	.	.	.	.	.	.	4a)	.	.	.
4G	dem	.	.	4cni	dem	.	.	4f#	dem	.	.	4ee	dem	.	.
=51	=51	=51	=51	=51	=51	=51	=51	=51	=51	=51	=51	=51	=51	=51	=51
[1GG	Herrn,	.	.	(4B	Herrn,	.	.	[1g	Herrn,	.	.	(4dd	Herrn	.	.
.	.	.	.	4e	.	.	.	.	.	.	.	4gg	.	.	.
.	.	.	.	4d)	.	.	.	.	.	.	.	4ff#)	.	.	.
.	.	.	.	4c	lob-	.	.	.	.	.	.	4ee	lob-	.	.
=52	=52	=52	=52	=52	=52	=52	=52	=52	=52	=52	=52	=52	=52	=52	=52
4GG]	.	.	.	4B	-sin-	.	.	4g]	.	.	.	([1dd	-sin-	.	.
4GG	laßt	.	.	4d	-gen,	.	.	4b	laßt	.	.	.	.	.	.
4AA	uns	.	.	4c	uns	.	.	4a	uns	.	.	.	.	.	.
4BB	dem	.	.	4B	dem	.	.	4g	dem	.	.	.	.	.	.
=53	=53	=53	=53	=53	=53	=53	=53	=53	=53	=53	=53	=53	=53	=53	=53
2.C	Herrn	.	.	(2A	Herrn	.	.	(4f#	Herrn	.	.	4dd]	.	.	.
.	.	.	.	.	.	.	.	2e)	.	.	.	4cc	.	.	.
.	.	.	.	4c)	.	.	.	.	.	.	.	4a)	-gen,	.	.
4D	lob-	.	.	4A	lob-	.	.	4c	lob-	.	.	4f#	lob-	.	.
=54	=54	=54	=54	=54	=54	=54	=54	=54	=54	=54	=54	=54	=54	=54	=54
1GG	-sin-	.	.	1A	-sin-	.	.	1c	-sin-	.	.	1f#	-sin-	.	.
=55	=55	=55	=55	=55	=55	=55	=55	=55	=55	=55	=55	=55	=55	=55	=55
4GG	-gen!	.	.	4G	-gen!	.	.	4B	-gen!	.	.	4g	-gen!	.	.
4r	.	.	.	4r	.	.	.	4r	.	.	.	4r	.	.	.
2r	.	.	.	2r	.	.	.	2r	.	.	.	2r	.	.	.
==	==	==	==	==	==	==	==	==	==	==	==	==	==	==	==
*-	*-	*-	*-	*-	*-	*-	*-	*-	*-	*-	*-	*-	*-	*-	*-
!!!system-decoration: ([s1,s2,s3,s4])
!!!EED: Imke Redecker